static/assets/img/icons/theme/electric/range-hood.svg

<svg height="24" viewBox="0 0 24 24" width="24" xmlns="http://www.w3.org/2000/svg"><g fill="none" fill-rule="evenodd"><path d="m0 0h24v24h-24z" opacity="0"/><g fill="#000"><path d="m9 13h6l5.4472136 2.7236068c.338784.169392.5527864.5156551.5527864.8944272v3.381966c0 .5522847-.4477153 1-1 1h-16c-.55228475 0-1-.4477153-1-1v-3.381966c0-.3787721.21400238-.7250352.5527864-.8944272zm1-11h4zm8 17c.5522847 0 1-.4477153 1-1s-.4477153-1-1-1-1 .4477153-1 1 .4477153 1 1 1zm-3 0c.5522847 0 1-.4477153 1-1s-.4477153-1-1-1-1 .4477153-1 1 .4477153 1 1 1zm-3 0c.5522847 0 1-.4477153 1-1s-.4477153-1-1-1-1 .4477153-1 1 .4477153 1 1 1z"/><path d="m9 13v-10c0-.55228475.44771525-1 1-1h4c.5522847 0 1 .44771525 1 1v10z" opacity=".3"/></g></g></svg>

<svg width="24px" height="24px" viewBox="0 0 24 24" version="1.1" xmlns="http://www.w3.org/2000/svg" xmlns:xlink="http://www.w3.org/1999/xlink">
    <title>Icon For Range-hood</title>
    <g stroke="none" stroke-width="1" fill="none" fill-rule="evenodd">
        <rect opacity="0" x="0" y="0" width="24" height="24"></rect>
        <path d="M9,13 L15,13 L20.4472136,15.7236068 C20.7859976,15.8929988 21,16.2392619 21,16.618034 L21,20 C21,20.5522847 20.5522847,21 20,21 L4,21 C3.44771525,21 3,20.5522847 3,20 L3,16.618034 C3,16.2392619 3.21400238,15.8929988 3.5527864,15.7236068 L9,13 Z M10,2 L14,2 L10,2 Z M18,19 C18.5522847,19 19,18.5522847 19,18 C19,17.4477153 18.5522847,17 18,17 C17.4477153,17 17,17.4477153 17,18 C17,18.5522847 17.4477153,19 18,19 Z M15,19 C15.5522847,19 16,18.5522847 16,18 C16,17.4477153 15.5522847,17 15,17 C14.4477153,17 14,17.4477153 14,18 C14,18.5522847 14.4477153,19 15,19 Z M12,19 C12.5522847,19 13,18.5522847 13,18 C13,17.4477153 12.5522847,17 12,17 C11.4477153,17 11,17.4477153 11,18 C11,18.5522847 11.4477153,19 12,19 Z" fill="#000000"></path>
        <path d="M9,13 L9,3 C9,2.44771525 9.44771525,2 10,2 L14,2 C14.5522847,2 15,2.44771525 15,3 L15,13 L9,13 Z" fill="#000000" opacity="0.3"></path>
    </g>
</svg>
